X:12410
T:On The Road to Boston
R:Reel
M:2/4
L:1/8
K:D
A|f2 fe/f/|gf ed|cd ef|dA FA|
f2 fe/f/|gf ed|cd ef|d2 d:|
|:f|a2 ag/a/|ba gf|g2 gf/g/|ag fe|
f2 fe/f/|gf ed|cd ef|d3:|
